X:1
T:Title
%%score 1 { 2 | 3 }
L:1/8
Q:1/4=90
M:2/4
K:F
V:1 treble nm="Grand Piano, Soprano"
V:2 bass nm="Choir Pad, Carol, Brothers, Carol"
V:3 bass 
V:1
 [Fd][Fd] [Fd][Fd] | [Bf][Fd] z2 | [Fc][Fc] [Fc][Fc] | .[Fd]4 | [FB][FB] [FB][Fc] | [Fd] .[Ff]3 | %6
w: By~William~Augustus~M�hlenberg * * *||||||
 [_Ec][Ec] [Fd]>[Ec] | [DB]3 B | cB AG | F2 FB | cB AG | .F4 | [Fd][Fd] [Fd][Fd] | [Ff] .[Fd]3 | %14
w: ||||||||
 [Gc][Gc] [Fd]>[_Ec] | [DB]4 | [Ac]>[Bd] [Ac]>[GB] | [^FA]2 [FA]2 | [GB]>[Gc] [^FA]>[GB] | G4 | %20
w: ||||||
 [GB]>[GB] [GB]>[GB] | [GB]2 [FB]2 | [EB]>[EB] [FA]>[FA] | [EG]4 | F[CF] [A,F][CG] | [FA][FA] z2 | %26
w: ||||||
 [FA][FA] [FA][GB] | .[Ac]4 | [Ac]>[Ac] [Ac]>[Ac] | [Bd]2 [GB]2 | [FA]>[FA] [EG]>[FA] | %31
w: |||||
 F[c_ef] [Bdf][Acf] |] %32
w: |
V:2
 B,B, B,B, | DB, z2 | A,A, A,A, | .B,4 | B,B, B,A, | B, .B,3 | A,A, A,>A, | B,3 B, | CB, A,G, | %9
 F,2 F,B, | CB, A,G, | .F,4 | B,B, B,B, | B, .B,3 | B,B, A,>A, | B,4 | D,4 | D,4 | G,2 D,2 | G,4 | %20
 G,4 | G,4 | C,4 | C,4 | F,4 | F,4 | F,4 | .F,4 | F,4 | B,4 | C4 | F,A, B,F, |] %32
V:3
 B,,B,, B,,B,, | B,,B,, z2 | F,F, F,F, | .B,,4 | D,D, D,F, | z .D,3 | F,F, F,>F, | .B,,4 | z4 | %9
 z4 | z4 | z4 | z2 D,F, | D, .B,,3 | _E,E, F,>F, | B,,4 | D,,4 | D,,4 | G,,2 D,,2 | G,,4 | G,,4 | %21
 G,,4 | C,,4 | C,,4 | F,,4 | F,,4 | F,,4 | .F,,4 | F,,4 | B,,4 | C,4 | F,,A,, B,,F,, |] %32

